packages/synapse-interface/assets/icons/vsta.svg

<svg fill="none" height="48" viewBox="0 0 48 48" width="48" xmlns="http://www.w3.org/2000/svg"><path d="m24 0c-13.2543 0-24 10.7457-24 24 0 13.2553 10.7457 24 24 24 13.2553 0 24-10.7447 24-24 0-13.2543-10.7447-24-24-24z" fill="#f7f8ef"/><path d="m23.9159 4.71606c-10.6031 0-19.19996 8.59684-19.19996 19.20004 0 10.6042 8.59686 19.2 19.19996 19.2 10.6043 0 19.2-8.5958 19.2-19.2 0-10.6032-8.5957-19.20004-19.2-19.20004z" fill="#011023"/><g fill="#f7f8ef"><path d="m20.5554 28-.1383-.0691 7.6383-15.2756h.1723z"/><path d="m22.734 27.9958-.1372-.0692 7.6351-15.2713h.1723z"/><path d="m21.2819 27.999-.1383-.0692 7.6372-15.2745h.1724z"/><path d="m22.0085 27.9968-.1383-.0691 7.6361-15.2724h.1724z"/><path d="m19.8298 28.0021-.1383-.0691 7.6383-15.2777h.1734z"/><path d="m38.9363 12.6553h.1734l-7.6606 15.3202-.1373-.0691z"/><path d="m16.9246 28.0085-.1383-.0691 7.6414-15.2841h.1734z"/><path d="m18.3766 28.0053-.1372-.0691 7.6393-15.2809h.1734z"/><path d="m17.6511 28.0064-.1383-.0681 7.6404-15.283h.1734z"/><path d="m19.1032 28.0032-.1383-.0681 7.6394-15.2798h.1734z"/><path d="m27.0915 27.9851-.1372-.0691 7.6298-15.2607h.1723z"/><path d="m27.8181 27.9841-.1383-.0692 7.6298-15.2596h.1723z"/><path d="m28.5447 27.9819-.1383-.0691 7.6288-15.2575h.1723z"/><path d="m23.4606 27.9936-.1383-.0691 7.6351-15.2692h.1724z"/><path d="m30.7234 27.9777-.1383-.0692 7.6266-15.2532h.1723z"/><path d="m29.9968 27.9787-.1383-.0691 7.6277-15.2543h.1723z"/><path d="m29.2703 27.9809-.1383-.0692 7.6287-15.2564h.1723z"/><path d="m24.9128 27.9904-.1372-.0691 7.6319-15.266h.1734z"/><path d="m24.1872 27.9926-.1383-.0692 7.633-15.2681h.1734z"/><path d="m26.366 27.9872-.1383-.0691 7.6309-15.2628h.1723z"/><path d="m25.6395 27.9883-.1383-.0681 7.6319-15.2649h.1734z"/><path d="m23.7893 43.2958-15.32024-30.6405h15.32024l7.6595 15.3202z"/></g></svg>

<svg width="48" height="48" viewBox="0 0 48 48" fill="none" xmlns="http://www.w3.org/2000/svg">
<path d="M24 0C10.7457 0 0 10.7457 0 24C0 37.2553 10.7457 48 24 48C37.2553 48 48 37.2553 48 24C48 10.7457 37.2553 0 24 0Z" fill="#F7F8EF"/>
<path d="M23.9159 4.71606C13.3128 4.71606 4.71594 13.3129 4.71594 23.9161C4.71594 34.5203 13.3128 43.1161 23.9159 43.1161C34.5202 43.1161 43.1159 34.5203 43.1159 23.9161C43.1159 13.3129 34.5202 4.71606 23.9159 4.71606Z" fill="#011023"/>
<path d="M20.5554 28L20.4171 27.9309L28.0554 12.6553H28.2277L20.5554 28Z" fill="#F7F8EF"/>
<path d="M22.734 27.9958L22.5968 27.9266L30.2319 12.6553H30.4042L22.734 27.9958Z" fill="#F7F8EF"/>
<path d="M21.2819 27.999L21.1436 27.9298L28.7808 12.6553H28.9532L21.2819 27.999Z" fill="#F7F8EF"/>
<path d="M22.0085 27.9968L21.8702 27.9277L29.5063 12.6553H29.6787L22.0085 27.9968Z" fill="#F7F8EF"/>
<path d="M19.8298 28.0021L19.6915 27.933L27.3298 12.6553H27.5032L19.8298 28.0021Z" fill="#F7F8EF"/>
<path d="M38.9363 12.6553H39.1097L31.4491 27.9755L31.3118 27.9064L38.9363 12.6553Z" fill="#F7F8EF"/>
<path d="M16.9246 28.0085L16.7863 27.9394L24.4277 12.6553H24.6011L16.9246 28.0085Z" fill="#F7F8EF"/>
<path d="M18.3766 28.0053L18.2394 27.9362L25.8787 12.6553H26.0521L18.3766 28.0053Z" fill="#F7F8EF"/>
<path d="M17.6511 28.0064L17.5128 27.9383L25.1532 12.6553H25.3266L17.6511 28.0064Z" fill="#F7F8EF"/>
<path d="M19.1032 28.0032L18.9649 27.9351L26.6043 12.6553H26.7777L19.1032 28.0032Z" fill="#F7F8EF"/>
<path d="M27.0915 27.9851L26.9543 27.916L34.5841 12.6553H34.7564L27.0915 27.9851Z" fill="#F7F8EF"/>
<path d="M27.8181 27.9841L27.6798 27.9149L35.3096 12.6553H35.4819L27.8181 27.9841Z" fill="#F7F8EF"/>
<path d="M28.5447 27.9819L28.4064 27.9128L36.0352 12.6553H36.2075L28.5447 27.9819Z" fill="#F7F8EF"/>
<path d="M23.4606 27.9936L23.3223 27.9245L30.9574 12.6553H31.1298L23.4606 27.9936Z" fill="#F7F8EF"/>
<path d="M30.7234 27.9777L30.5851 27.9085L38.2117 12.6553H38.384L30.7234 27.9777Z" fill="#F7F8EF"/>
<path d="M29.9968 27.9787L29.8585 27.9096L37.4862 12.6553H37.6585L29.9968 27.9787Z" fill="#F7F8EF"/>
<path d="M29.2703 27.9809L29.132 27.9117L36.7607 12.6553H36.933L29.2703 27.9809Z" fill="#F7F8EF"/>
<path d="M24.9128 27.9904L24.7756 27.9213L32.4075 12.6553H32.5809L24.9128 27.9904Z" fill="#F7F8EF"/>
<path d="M24.1872 27.9926L24.0489 27.9234L31.6819 12.6553H31.8553L24.1872 27.9926Z" fill="#F7F8EF"/>
<path d="M26.366 27.9872L26.2277 27.9181L33.8586 12.6553H34.0309L26.366 27.9872Z" fill="#F7F8EF"/>
<path d="M25.6395 27.9883L25.5012 27.9202L33.1331 12.6553H33.3065L25.6395 27.9883Z" fill="#F7F8EF"/>
<path d="M23.7893 43.2958L8.46906 12.6553H23.7893L31.4488 27.9755L23.7893 43.2958Z" fill="#F7F8EF"/>
</svg>
